packages/icons/src/components/Icon/assets/small-outline/adress-play.svg

<svg width="16" height="16" viewBox="0 0 16 16" fill="none" xmlns="http://www.w3.org/2000/svg">
<path fill-rule="evenodd" clip-rule="evenodd" d="M5.7868 8.61761C5.7868 9.08142 6.02695 9.51215 6.42149 9.75599C6.81603 9.99983 7.30869 10.022 7.72353 9.81458L10.2971 8.5278C10.7505 8.30111 11.0368 7.83773 11.0368 7.33083C11.0368 6.82394 10.7505 6.36056 10.2971 6.13387L7.72353 4.8471C7.30869 4.63967 6.81603 4.66184 6.42149 4.90568C6.02695 5.14952 5.7868 5.58025 5.7868 6.04406V8.61761ZM9.6986 7.33083L7.12505 8.61761V6.04406L9.6986 7.33083Z" fill="black"/>
<path fill-rule="evenodd" clip-rule="evenodd" d="M7.7009 14.9234L7.70295 14.9245C7.8878 15.025 8.11197 15.0252 8.29682 14.9247L8.00011 14.387C8.29645 14.9241 8.29783 14.9242 8.29783 14.9242L8.29931 14.9234L8.30368 14.921L8.31792 14.9131C8.32982 14.9064 8.34648 14.897 8.36758 14.8849C8.40979 14.8606 8.46981 14.8254 8.54512 14.7793C8.69564 14.6873 8.90767 14.5519 9.16072 14.3745C9.66578 14.0203 10.3398 13.4947 11.0155 12.8079C12.3592 11.4422 13.7649 9.38044 13.7649 6.72268C13.7649 3.56213 11.1839 1 8.00011 1C4.81632 1 2.23535 3.56213 2.23535 6.72268C2.23535 9.38044 3.64098 11.4422 4.98469 12.8079C5.66044 13.4947 6.33443 14.0203 6.8395 14.3745C7.09254 14.5519 7.30457 14.6873 7.4551 14.7793C7.5304 14.8254 7.59043 14.8606 7.63263 14.8849C7.64455 14.8917 7.65505 14.8977 7.66407 14.9028C7.67103 14.9068 7.67712 14.9102 7.6823 14.9131L7.69654 14.921L7.7009 14.9234ZM3.47066 6.72268C3.47066 4.23939 5.49856 2.22629 8.00011 2.22629C10.5017 2.22629 12.5296 4.23939 12.5296 6.72268C12.5296 8.93065 11.3616 10.7011 10.1318 11.9511C9.52077 12.5721 8.90798 13.0503 8.44797 13.3729C8.2728 13.4957 8.12059 13.5954 8.00011 13.6714C7.87963 13.5954 7.72742 13.4957 7.55225 13.3729C7.09223 13.0503 6.47945 12.5721 5.86842 11.9511C4.63858 10.7011 3.47066 8.93065 3.47066 6.72268ZM8.00011 14.387C7.7034 14.9247 7.70295 14.9245 7.70295 14.9245L8.00011 14.387Z" fill="black"/>
</svg>

<svg xmlns="http://www.w3.org/2000/svg" width="16" height="16" fill="none" viewBox="0 0 16 16">
    <path fill="#000" fill-rule="evenodd" d="M5.787 8.618a1.338 1.338 0 0 0 1.937 1.197l2.573-1.287a1.338 1.338 0 0 0 0-2.394L7.724 4.847a1.338 1.338 0 0 0-1.937 1.197zM9.699 7.33 7.125 8.618V6.044z" clip-rule="evenodd"/>
    <path fill="#000" fill-rule="evenodd" d="m7.7 14.923.003.002c.185.1.409.1.594 0L8 14.387c.296.537.298.537.298.537h.001l.005-.003.014-.008a7 7 0 0 0 .227-.134 13.5 13.5 0 0 0 2.47-1.971c1.344-1.366 2.75-3.428 2.75-6.085C13.765 3.563 11.184 1 8 1S2.235 3.562 2.235 6.723c0 2.657 1.406 4.72 2.75 6.085a13.5 13.5 0 0 0 2.47 1.971q.113.07.178.106l.031.018.018.01.015.008zm-4.23-8.2C3.47 4.239 5.5 2.226 8 2.226s4.53 2.013 4.53 4.497c0 2.208-1.168 3.978-2.398 5.228A12.3 12.3 0 0 1 8 13.671a12.3 12.3 0 0 1-2.132-1.72c-1.23-1.25-2.397-3.02-2.397-5.228M8 14.387l-.297.537z" clip-rule="evenodd"/>
</svg>
